icons/svg/landuse/protected_area.svg

<?xml version="1.0" encoding="UTF-8" standalone="no"?>
<!-- Created with Inkscape (http://www.inkscape.org/) -->

<svg
   xmlns:dc="http://purl.org/dc/elements/1.1/"
   xmlns:cc="http://creativecommons.org/ns#"
   xmlns:rdf="http://www.w3.org/1999/02/22-rdf-syntax-ns#"
   xmlns:svg="http://www.w3.org/2000/svg"
   xmlns="http://www.w3.org/2000/svg"
   xmlns:sodipodi="http://sodipodi.sourceforge.net/DTD/sodipodi-0.dtd"
   xmlns:inkscape="http://www.inkscape.org/namespaces/inkscape"
   version="1.0"
   width="580"
   height="580"
   id="svg2"
   sodipodi:version="0.32"
   inkscape:version="0.91 r"
   sodipodi:docname="protected_area.svg"
   inkscape:output_extension="org.inkscape.output.svg.inkscape">
  <metadata
     id="metadata10">
    <rdf:RDF>
      <cc:Work
         rdf:about="">
        <dc:format>image/svg+xml</dc:format>
        <dc:type
           rdf:resource="http://purl.org/dc/dcmitype/StillImage" />
        <cc:license
           rdf:resource="http://web.resource.org/cc/PublicDomain" />
        <dc:language>en</dc:language>
        <dc:title></dc:title>
      </cc:Work>
    </rdf:RDF>
  </metadata>
  <sodipodi:namedview
     inkscape:window-height="1004"
     inkscape:window-width="1920"
     inkscape:pageshadow="2"
     inkscape:pageopacity="0.0"
     guidetolerance="10.0"
     gridtolerance="10.0"
     objecttolerance="10.0"
     borderopacity="1.0"
     bordercolor="#666666"
     pagecolor="#ffffff"
     id="base"
     showgrid="false"
     inkscape:zoom="0.70710678"
     inkscape:cx="381.07078"
     inkscape:cy="377.52715"
     inkscape:window-x="1680"
     inkscape:window-y="0"
     inkscape:current-layer="svg2"
     inkscape:window-maximized="1"
     inkscape:snap-global="false">
    <inkscape:grid
       type="xygrid"
       id="grid3034" />
  </sodipodi:namedview>
  <defs
     id="defs4">
    <inkscape:perspective
       sodipodi:type="inkscape:persp3d"
       inkscape:vp_x="0 : 290 : 1"
       inkscape:vp_y="0 : 1000 : 0"
       inkscape:vp_z="580 : 290 : 1"
       inkscape:persp3d-origin="290 : 193.33333 : 1"
       id="perspective12" />
    <style
       type="text/css"
       id="style6">
   
    .fil0 {fill:#EF7900}
   
  </style>
    <inkscape:perspective
       id="perspective6807"
       inkscape:persp3d-origin="29.116032 : 19.410688 : 1"
       inkscape:vp_z="58.232063 : 29.116032 : 1"
       inkscape:vp_y="0 : 1000 : 0"
       inkscape:vp_x="0 : 29.116032 : 1"
       sodipodi:type="inkscape:persp3d" />
    <inkscape:perspective
       id="perspective6954"
       inkscape:persp3d-origin="290 : 193.33333 : 1"
       inkscape:vp_z="580 : 290 : 1"
       inkscape:vp_y="0 : 1000 : 0"
       inkscape:vp_x="0 : 290 : 1"
       sodipodi:type="inkscape:persp3d" />
    <inkscape:perspective
       id="perspective2541"
       inkscape:persp3d-origin="240 : 160 : 1"
       inkscape:vp_z="480 : 240 : 1"
       inkscape:vp_y="0 : 1000 : 0"
       inkscape:vp_x="0 : 240 : 1"
       sodipodi:type="inkscape:persp3d" />
    <inkscape:perspective
       id="perspective2750"
       inkscape:persp3d-origin="215 : 143.33333 : 1"
       inkscape:vp_z="430 : 215 : 1"
       inkscape:vp_y="0 : 1000 : 0"
       inkscape:vp_x="0 : 215 : 1"
       sodipodi:type="inkscape:persp3d" />
    <inkscape:perspective
       id="perspective3730"
       inkscape:persp3d-origin="88.929146 : 101.19778 : 1"
       inkscape:vp_z="177.85829 : 151.79668 : 1"
       inkscape:vp_y="0 : 1000 : 0"
       inkscape:vp_x="0 : 151.79668 : 1"
       sodipodi:type="inkscape:persp3d" />
  </defs>
  <a
     id="a3072">
    <g
       id="g1327">
      <path
         id="path1329"
         style="fill:#111111;stroke:#eeeeee;stroke-width:3.40799999"
         d="M 66.275,1.768 C 24.94,1.768 1.704,23.139 1.704,66.804 L 1.704,516.927 C 1.704,557.771 22.598,579.156 63.896,579.156 L 515.92,579.156 C 557.227,579.156 578.149,558.84 578.149,516.927 L 578.149,66.804 C 578.149,24.203 557.227,1.768 514.627,1.768 C 514.624,1.768 66.133,1.625 66.275,1.768 z" />
    </g>
  </a>
  <g
     id="g1327-3"
     transform="matrix(1.4887701,0,0,1.4888106,-703.87313,-249.96612)" />
  <path
     style="opacity:0.46400003;fill:#fefefe;fill-opacity:0;stroke:none;stroke-width:65.80000305;stroke-linecap:butt;stroke-linejoin:round;stroke-miterlimit:4;stroke-dasharray:none;stroke-opacity:0.68181817"
     d="M 46.297608,79.065121 115.15377,12.384499 277.94096,5.3256215 352.12539,89.56954 l 37.28652,81.9726 15.92092,187.00516 35.53577,8.22098 84.28425,43.33195 45.80787,41.08837 -27.7396,83.98386 -73.61553,27.15053 L 229.52908,574.67438 38.637527,506.31106 9.039276,252.76137 Z"
     id="path3759"
     inkscape:connector-curvature="0"
     sodipodi:nodetypes="ccccccccccccccc" />
  <circle
     style="color:#000000;clip-rule:nonzero;display:inline;overflow:visible;visibility:visible;opacity:1;isolation:auto;mix-blend-mode:normal;color-interpolation:sRGB;color-interpolation-filters:linearRGB;solid-color:#000000;solid-opacity:1;fill:none;fill-opacity:1;fill-rule:nonzero;stroke:#ffffff;stroke-width:24.44880486;stroke-linecap:butt;stroke-linejoin:miter;stroke-miterlimit:4;stroke-dasharray:none;stroke-dashoffset:0;stroke-opacity:1;marker:none;color-rendering:auto;image-rendering:auto;shape-rendering:auto;text-rendering:auto;enable-background:accumulate"
     id="path4155"
     cx="290"
     cy="290"
     r="255.78404" />
  <path
     inkscape:connector-curvature="0"
     id="path4157"
     style="font-style:normal;font-variant:normal;font-weight:bold;font-stretch:normal;font-size:medium;line-height:125%;font-family:'Noto Serif';-inkscape-font-specification:'Noto Serif Bold';letter-spacing:0px;word-spacing:0px;fill:#ffffff;fill-opacity:1;stroke:none;stroke-width:1px;stroke-linecap:butt;stroke-linejoin:miter;stroke-opacity:1"
     d="m 432.92248,222.07429 q 0,20.16482 -7.01385,38.79535 -7.01385,18.63054 -22.795,32.87742 -15.78116,14.24688 -40.98718,22.795 -25.20602,8.32895 -61.59036,8.32895 l -15.34279,0 0,71.89194 q 0,8.76731 1.97265,14.24688 1.97264,5.26039 5.26038,8.10976 3.28774,2.6302 7.6714,3.50693 4.38365,0.87673 8.98649,0.87673 l 27.39785,0 0,23.89092 -163.94871,0 0,-23.89092 18.84972,0 q 5.0412,0 9.20568,-0.87673 4.16447,-1.09591 7.23303,-4.16447 3.06856,-3.06856 4.82202,-8.76731 1.75346,-5.69876 1.75346,-15.3428 l 0,-216.33338 q 0,-8.98649 -1.75346,-14.24688 -1.75346,-5.47957 -5.04121,-8.32895 -3.06855,-2.84937 -7.23303,-3.7261 -4.16447,-1.09592 -8.98649,-1.09592 l -18.84972,0 0,-23.67173 137.86596,0 q 31.12395,0 54.13814,6.57548 23.01419,6.57548 38.1378,19.0689 15.34279,12.27423 22.79501,29.80885 7.45221,17.53463 7.45221,39.67208 z m -147.72918,76.71397 10.95914,0 q 16.65789,0 28.27457,-4.16447 11.61669,-4.16448 18.84972,-13.15097 7.45222,-8.98649 10.73996,-23.23337 3.50692,-14.24688 3.50692,-34.41169 0,-17.97299 -3.06856,-31.12396 -2.84937,-13.37014 -9.42486,-21.91827 -6.3563,-8.76731 -16.87707,-12.93178 -10.30159,-4.38366 -25.4252,-4.38366 l -17.53462,0 0,145.31817 z" />
</svg>

<svg width="580" height="580" viewBox="0 0 580 580" fill="none" xmlns="http://www.w3.org/2000/svg">
<path d="M290 545.784C431.266 545.784 545.784 431.266 545.784 290C545.784 148.734 431.266 34.2161 290 34.2161C148.734 34.2161 34.2161 148.734 34.2161 290C34.2161 431.266 148.734 545.784 290 545.784Z" stroke="white" stroke-width="24.4488"/>
<path d="M432.923 222.074C432.923 235.518 430.585 248.449 425.909 260.87C421.233 273.29 413.634 284.249 403.114 293.747C392.593 303.245 378.931 310.843 362.127 316.542C345.323 322.095 324.792 324.871 300.536 324.871H285.193V396.763C285.193 402.608 285.851 407.357 287.166 411.01C288.481 414.517 290.235 417.22 292.426 419.12C294.618 420.873 297.175 422.042 300.098 422.627C303.02 423.211 306.016 423.503 309.084 423.503H336.482V447.394H172.533V423.503H191.383C194.744 423.503 197.813 423.211 200.589 422.627C203.365 421.896 205.776 420.508 207.822 418.462C209.868 416.416 211.475 413.494 212.644 409.695C213.813 405.896 214.397 400.781 214.397 394.352V178.019C214.397 172.028 213.813 167.279 212.644 163.772C211.475 160.119 209.795 157.342 207.603 155.443C205.557 153.543 203.146 152.301 200.37 151.717C197.593 150.986 194.598 150.621 191.383 150.621H172.533V126.949H310.399C331.149 126.949 349.195 129.141 364.538 133.524C379.88 137.908 392.593 144.264 402.675 152.593C412.904 160.776 420.502 170.712 425.47 182.402C430.439 194.092 432.923 207.316 432.923 222.074V222.074ZM285.193 298.788H296.153C307.258 298.788 316.683 297.4 324.427 294.624C332.172 291.847 338.455 287.464 343.277 281.473C348.245 275.482 351.825 267.737 354.017 258.239C356.355 248.742 357.524 237.271 357.524 223.828C357.524 211.846 356.501 201.471 354.455 192.704C352.556 183.79 349.414 176.484 345.03 170.786C340.793 164.941 335.167 160.63 328.153 157.854C321.285 154.931 312.81 153.47 302.728 153.47H285.193V298.788V298.788Z" fill="white"/>
</svg>
